X:1
T:Cork March (Na Fili 3)
M:4/4
R:March
K:G
G2 GF E2 EF | G2 GB A2 GA | B2 B2 BAGA | B2 D2 D2 BA |
G2 GF E2 EF | G2 GB A2 GA | B2 e2 dB AB | G2 E2 E2 Bc |
d2 de d2 Bd | edBc d2 ed | c2 B2 A2 GA | B2 D2 D2 BA |
G2 GF E2 EF | G2 GB A2 GA | B2 e2 dB AB | G2 E2 E4 ||
